Dominus_Dark_Funeral/symbolic/categories/applications-graphics-symbolic.svg

<svg xmlns="http://www.w3.org/2000/svg" width="24" height="24" version="1"><defs><linearGradient id="a"><stop offset="0"/><stop offset="1" stop-opacity="0"/></linearGradient><linearGradient id="b"><stop offset="0" stop-color="#f2f2f2"/><stop offset="1" stop-color="#c3c3c3"/></linearGradient><linearGradient id="c"><stop offset="0" stop-color="#edd563"/><stop offset="1" stop-color="#e08223"/></linearGradient></defs><path d="M15.9 4.9a.5.5 0 1 1-.99 0 .5.5 0 0 1 .99 0zm4.24 9.72s-.97 1.1-.97 1.63a.97.97 0 0 0 1.94 0c0-.53-.97-1.63-.97-1.63zm-1.2-3.02c0-.06 0-.14.03-.21l-.14.18a19.73 19.73 0 0 1-3.56 3.04 16.59 16.59 0 0 1-5.23 3.11l-.24.08-1.99-1.43-5.54 4.96a1.23 1.23 0 0 1-1.74-.1c-.46-.51-.41-1.3.1-1.75l5.13-4.58-.19-.14-.08-.08-.3-.34c-.08-.22 0-.42.22-.6a27.86 27.86 0 0 0 8.7-11.7l.2-.55 7.9 4.74-.26.42c-.05.1-.43.73-1.07 1.65-.13.33-.28.66-.3.94l-.03.05c.35.46.8 1.12.8 1.52 0 .66-.54 1.2-1.2 1.2-.12.27-.33.45-.57.45-.36 0-.64-.38-.64-.86zm1.58-4.67l.07.03.25-.39-6.02-3.62a29.05 29.05 0 0 1-8.37 11.23l3.5 2.52.57-.22a4.6 4.6 0 0 1-1.63-2.11c-.24-.83.41-1.18 1.1-1.3-.01-.42.13-.8.63-.96.3-.1 1.68.44 1.7.35.12-.34.43-.5.77-.43.7.12.57.38.39-.24-.06-.21-.14-.45-.14-.68 0-.5.2-.93.67-1.13.4-.18.78-.03.87-.64.04-.26.1-.57.29-.78.45-.47.8-.39 1.42-.38 1.07 0 1.26-.77 2.12-1.17.5-.23 1.3-.3 1.81-.08zm1.86 9.33s-1.45 1.64-1.45 2.44a1.45 1.45 0 0 0 2.9 0c0-.8-1.45-2.44-1.45-2.44z" fill="gray"/></svg>

<?xml version="1.0" encoding="UTF-8" standalone="no"?>
<svg
   xmlns:dc="http://purl.org/dc/elements/1.1/"
   xmlns:cc="http://creativecommons.org/ns#"
   xmlns:rdf="http://www.w3.org/1999/02/22-rdf-syntax-ns#"
   xmlns:svg="http://www.w3.org/2000/svg"
   xmlns="http://www.w3.org/2000/svg"
   xmlns:sodipodi="http://sodipodi.sourceforge.net/DTD/sodipodi-0.dtd"
   xmlns:inkscape="http://www.inkscape.org/namespaces/inkscape"
   width="24"
   height="24"
   version="1"
   id="svg21"
   sodipodi:docname="applications-graphics-symbolic.svg"
   inkscape:version="0.92.4 (5da689c313, 2019-01-14)">
  <metadata
     id="metadata25">
    <rdf:RDF>
      <cc:Work
         rdf:about="">
        <dc:format>image/svg+xml</dc:format>
        <dc:type
           rdf:resource="http://purl.org/dc/dcmitype/StillImage" />
        <dc:title></dc:title>
      </cc:Work>
    </rdf:RDF>
  </metadata>
  <sodipodi:namedview
     pagecolor="#ffffff"
     bordercolor="#666666"
     borderopacity="1"
     objecttolerance="10"
     gridtolerance="10"
     guidetolerance="10"
     inkscape:pageopacity="0"
     inkscape:pageshadow="2"
     inkscape:window-width="1112"
     inkscape:window-height="480"
     id="namedview23"
     showgrid="false"
     inkscape:zoom="9.8333333"
     inkscape:cx="1.0677966"
     inkscape:cy="12"
     inkscape:window-x="0"
     inkscape:window-y="25"
     inkscape:window-maximized="0"
     inkscape:current-layer="svg21" />
  <defs
     id="defs17">
    <linearGradient
       id="a">
      <stop
         offset="0"
         id="stop2" />
      <stop
         offset="1"
         stop-opacity="0"
         id="stop4" />
    </linearGradient>
    <linearGradient
       id="b">
      <stop
         offset="0"
         stop-color="#f2f2f2"
         id="stop7" />
      <stop
         offset="1"
         stop-color="#c3c3c3"
         id="stop9" />
    </linearGradient>
    <linearGradient
       id="c">
      <stop
         offset="0"
         stop-color="#edd563"
         id="stop12" />
      <stop
         offset="1"
         stop-color="#e08223"
         id="stop14" />
    </linearGradient>
  </defs>
  <path
     d="m 15.9,4.9 a 0.5,0.5 0 1 1 -0.99,0 0.5,0.5 0 0 1 0.99,0 z m 4.24,9.72 c 0,0 -0.97,1.1 -0.97,1.63 a 0.97,0.97 0 0 0 1.94,0 c 0,-0.53 -0.97,-1.63 -0.97,-1.63 z m -1.2,-3.02 c 0,-0.06 0,-0.14 0.03,-0.21 l -0.14,0.18 a 19.73,19.73 0 0 1 -3.56,3.04 16.59,16.59 0 0 1 -5.23,3.11 L 9.8,17.8 7.81,16.37 2.27,21.33 A 1.23,1.23 0 0 1 0.53,21.23 C 0.07,20.72 0.12,19.93 0.63,19.48 L 5.76,14.9 5.57,14.76 5.49,14.68 5.19,14.34 c -0.08,-0.22 0,-0.42 0.22,-0.6 a 27.86,27.86 0 0 0 8.7,-11.7 l 0.2,-0.55 7.9,4.74 -0.26,0.42 C 21.9,6.75 21.52,7.38 20.88,8.3 20.75,8.63 20.6,8.96 20.58,9.24 l -0.03,0.05 c 0.35,0.46 0.8,1.12 0.8,1.52 0,0.66 -0.54,1.2 -1.2,1.2 -0.12,0.27 -0.33,0.45 -0.57,0.45 -0.36,0 -0.64,-0.38 -0.64,-0.86 z M 20.52,6.93 20.59,6.96 20.84,6.57 14.82,2.95 A 29.05,29.05 0 0 1 6.45,14.18 l 3.5,2.52 0.57,-0.22 A 4.6,4.6 0 0 1 8.89,14.37 c -0.24,-0.83 0.41,-1.18 1.1,-1.3 -0.01,-0.42 0.13,-0.8 0.63,-0.96 0.3,-0.1 1.68,0.44 1.7,0.35 0.12,-0.34 0.43,-0.5 0.77,-0.43 0.7,0.12 0.57,0.38 0.39,-0.24 -0.06,-0.21 -0.14,-0.45 -0.14,-0.68 0,-0.5 0.2,-0.93 0.67,-1.13 0.4,-0.18 0.78,-0.03 0.87,-0.64 0.04,-0.26 0.1,-0.57 0.29,-0.78 0.45,-0.47 0.8,-0.39 1.42,-0.38 1.07,0 1.26,-0.77 2.12,-1.17 0.5,-0.23 1.3,-0.3 1.81,-0.08 z m 1.86,9.33 c 0,0 -1.45,1.64 -1.45,2.44 a 1.45,1.45 0 0 0 2.9,0 c 0,-0.8 -1.45,-2.44 -1.45,-2.44 z"
     id="path19"
     inkscape:connector-curvature="0"
     style="fill:#808080" />
</svg>
